symbols/web/looks_6/materialsymbolsoutlined/looks_6_wght700grad200_48px.svg

<svg xmlns="http://www.w3.org/2000/svg" height="48" width="48"><path d="M21.2 34.05h5.6q1.5 0 2.45-.95.95-.95.95-2.45v-5q0-1.5-.95-2.475-.95-.975-2.45-.975h-5.6v-4.85h6.85v-3.4H21.2q-1.5 0-2.45.95-.95.95-.95 2.45v13.3q0 1.5.95 2.45.95.95 2.45.95Zm0-8.4h5.6v5h-5.6ZM9.45 43.1q-1.85 0-3.2-1.35t-1.35-3.2V9.45q0-1.9 1.35-3.25t3.2-1.35h29.1q1.9 0 3.25 1.35t1.35 3.25v29.1q0 1.85-1.35 3.2t-3.25 1.35Zm0-4.55h29.1V9.45H9.45v29.1Zm0-29.1v29.1-29.1Z"/></svg>

<svg xmlns="http://www.w3.org/2000/svg" height="48" width="48"><path d="M21.2 22.2V17.35Q21.2 17.35 21.2 17.35Q21.2 17.35 21.2 17.35H28.05V13.95H21.2Q19.7 13.95 18.75 14.9Q17.8 15.85 17.8 17.35V30.65Q17.8 32.15 18.75 33.1Q19.7 34.05 21.2 34.05H26.8Q28.3 34.05 29.25 33.1Q30.2 32.15 30.2 30.65V25.65Q30.2 24.15 29.25 23.175Q28.3 22.2 26.8 22.2ZM21.2 25.65H26.8Q26.8 25.65 26.8 25.65Q26.8 25.65 26.8 25.65V30.65Q26.8 30.65 26.8 30.65Q26.8 30.65 26.8 30.65H21.2Q21.2 30.65 21.2 30.65Q21.2 30.65 21.2 30.65ZM9.45 43.1Q7.6 43.1 6.25 41.75Q4.9 40.4 4.9 38.55V9.45Q4.9 7.55 6.25 6.2Q7.6 4.85 9.45 4.85H38.55Q40.45 4.85 41.8 6.2Q43.15 7.55 43.15 9.45V38.55Q43.15 40.4 41.8 41.75Q40.45 43.1 38.55 43.1ZM9.45 38.55H38.55Q38.55 38.55 38.55 38.55Q38.55 38.55 38.55 38.55V9.45Q38.55 9.45 38.55 9.45Q38.55 9.45 38.55 9.45H9.45Q9.45 9.45 9.45 9.45Q9.45 9.45 9.45 9.45V38.55Q9.45 38.55 9.45 38.55Q9.45 38.55 9.45 38.55ZM9.45 9.45Q9.45 9.45 9.45 9.45Q9.45 9.45 9.45 9.45V38.55Q9.45 38.55 9.45 38.55Q9.45 38.55 9.45 38.55Q9.45 38.55 9.45 38.55Q9.45 38.55 9.45 38.55V9.45Q9.45 9.45 9.45 9.45Q9.45 9.45 9.45 9.45Z"/></svg>
